src/images/heartIcon.svg

<?xml version="1.0" encoding="utf-8"?>
<svg viewBox="0 0 24 24" style="enable-background:new 0 0 24 24;" xmlns="http://www.w3.org/2000/svg">
  <defs>
    <style type="text/css">
	.st0{fill:none;stroke:#303C42;stroke-linecap:round;stroke-linejoin:round;}
</style>
  </defs>
  <g id="Heart">
    <g id="_Group_">
      <path id="_Path_" class="st0" d="M 5 8.5 C 3.9 8.5 3.5 11.7 3.5 14 C 3.5 16.3 5.6 22.5 13.5 22.5 C 14.2 22.5 15.7 23.5 18 23.5 C 20.3 23.5 20.5 21.1 20.5 18 C 20.5 14.9 19.5 12.2 17.5 11.5 C 17.5 10.7 15.9 8 15 8 C 14.1 8 11.495 8.606 9.695 8.606 C 7.895 8.606 7 8.5 5 8.5 Z" style="stroke: rgb(48, 60, 66); stroke-linecap: round; stroke-linejoin: round; paint-order: fill; fill: rgba(237, 73, 87, 0);"/>
      <path id="_Path_2" class="st0" d="M 6.953 8.332 C 6.653 7.532 3.83 7.012 3.83 6.112 C 3.83 4.712 4.228 3.472 6.028 3.472 L 8.5 3.5" style="stroke: rgb(48, 60, 66); stroke-linecap: round; stroke-linejoin: round; paint-order: fill; fill: rgba(237, 73, 87, 0);"/>
      <path id="_Path_3" class="st0" d="M17.5,11.5c-2.7,0-3,1.2-3,3s-1,2.5-1,4.5v3.5" style="stroke: rgb(48, 60, 66); stroke-linecap: round; stroke-linejoin: round; paint-order: fill; fill: rgba(237, 73, 87, 0);"/>
      <path id="_Path_4" class="st0" d="M 9.472 8.942 C 9.472 11.542 5 15 5 18" style="stroke: rgb(48, 60, 66); stroke-linecap: round; stroke-linejoin: round; paint-order: fill; fill: rgba(237, 73, 87, 0);"/>
      <path id="_Path_5" class="st0" d="M 7.472 8.497 C 7.472 5.197 9.5 3 8 1.5 L 9 0.5 L 10.5 2 L 11 0.584 L 12.221 0.863 L 12.5 2.5 C 13.6 4.1 14.396 5.916 14.196 7.916" style="stroke-linecap: round; stroke-linejoin: round; paint-order: fill; fill: rgba(237, 73, 87, 0);"/>
      <path id="_Path_6" class="st0" d="M 10.556 8.553 C 10.556 7.253 10 7.8 10 6.5 C 10 5.2 10.2 4.5 11 4.5 C 11.8 4.5 12.156 6.953 10.556 8.553 Z" style="stroke: rgb(48, 60, 66); stroke-linecap: round; stroke-linejoin: round; paint-order: fill; fill: rgba(237, 73, 87, 0);"/>
      <path id="_Path_7" class="st0" d="M4.5,18v4.5c0.4,0.8,1.3,1.2,2.1,0.9c0.4-0.2,0.7-0.5,0.9-0.9V21" style="stroke: rgb(48, 60, 66); stroke-linecap: round; stroke-linejoin: round; paint-order: fill; fill: rgba(237, 73, 87, 0);"/>
    </g>
  </g>
</svg>

<?xml version="1.0" encoding="utf-8"?>
<svg xmlns="http://www.w3.org/2000/svg" xmlns:xlink="http://www.w3.org/1999/xlink" version="1.1" id="Layer_1" x="0px" y="0px" viewBox="0 0 24 24" style="enable-background:new 0 0 24 24;" xml:space="preserve">
<style type="text/css">
	.st0{fill:none;stroke:#303C42;stroke-linecap:round;stroke-linejoin:round;}
</style>
<title>Heart</title>
<g id="Heart">
	<g id="_Group_">
		<path id="_Path_" class="st0" d="M5,8.5c-1.1,0-1.5,3.2-1.5,5.5s2.1,8.5,10,8.5c0.7,0,2.2,1,4.5,1s2.5-2.4,2.5-5.5s-1-5.8-3-6.5    c0-0.8-1.6-3.5-2.5-3.5s-3.7,1.5-5.5,1.5S7,8.5,5,8.5z" style="fill: none; stroke: #303C42; stroke-linecap: round; stroke-linejoin: round;"/>
		<path id="_Path_2" class="st0" d="M5,8.5C4.7,7.7,4.5,6.9,4.5,6c0-1.4-0.3-2.5,1.5-2.5h2.5" style="fill: none; stroke: #303C42; stroke-linecap: round; stroke-linejoin: round;"/>
		<path id="_Path_3" class="st0" d="M17.5,11.5c-2.7,0-3,1.2-3,3s-1,2.5-1,4.5v3.5" style="fill: none; stroke: #303C42; stroke-linecap: round; stroke-linejoin: round;"/>
		<path id="_Path_4" class="st0" d="M9.5,9.5C9.5,12.1,5,15,5,18" style="fill: none; stroke: #303C42; stroke-linecap: round; stroke-linejoin: round;"/>
		<path id="_Path_5" class="st0" d="M7.5,9c0-3.3,2-6,0.5-7.5l1-1L10.5,2L11,0.5h1.5v2C13.6,4.1,14.2,6,14,8" style="fill: none; stroke: #303C42; stroke-linecap: round; stroke-linejoin: round;"/>
		<path id="_Path_6" class="st0" d="M10.5,9c0-1.3-0.5-1.2-0.5-2.5s0.2-2,1-2S12.1,7.4,10.5,9z" style="fill: none; stroke: #303C42; stroke-linecap: round; stroke-linejoin: round;"/>
		<path id="_Path_7" class="st0" d="M4.5,18v4.5c0.4,0.8,1.3,1.2,2.1,0.9c0.4-0.2,0.7-0.5,0.9-0.9V21" style="fill: none; stroke: #303C42; stroke-linecap: round; stroke-linejoin: round;"/>
	</g>
</g>

	<metadata>
		<rdf:RDF xmlns:rdf="http://www.w3.org/1999/02/22-rdf-syntax-ns#" xmlns:rdfs="http://www.w3.org/2000/01/rdf-schema#" xmlns:dc="http://purl.org/dc/elements/1.1/">
			<rdf:Description about="https://iconscout.com/legal#licenses" dc:title="heart; organ; health; anatomy; medical" dc:description="heart; organ; health; anatomy; medical" dc:publisher="Iconscout" dc:date="2017-02-16" dc:format="image/svg+xml" dc:language="en">
				<dc:creator>
					<rdf:Bag>
						<rdf:li>Alpár - Etele Méder</rdf:li>
					</rdf:Bag>
				</dc:creator>
			</rdf:Description>
		</rdf:RDF>
    </metadata></svg>
